X: 22401
T: Ladie's March To The Ballroom, The
R: jig
M: 6/8
K: Dmajor
|:F3 FED|G2E EDE|F2d GEC|ded cAG|
FGF FED|G2E EAG|F2D GEC|1 DED DAG:|2 DED D3||
|:A2B c2A|AdB cAG|~A3 d2f|fed cAG|
~A3 BcA|AdB cAG|1 F2A GEC|DED D3:|2 F2A G2A|DED D3||

